images/play.svg

<svg fill="none" height="51" viewBox="0 0 50 51" width="50" xmlns="http://www.w3.org/2000/svg" xmlns:xlink="http://www.w3.org/1999/xlink"><clipPath id="a"><path d="m.11084.84729h49v50h-49z"/></clipPath><g clip-path="url(#a)" fill="#fff"><path d="m32.6926 24.8698-10.1747-7.5472c-.3734-.2762-.8691-.3178-1.2784-.1031-.4125.213-.6702.6456-.6702 1.1131v15.0893c0 .4726.2577.9035.6702 1.1165.1745.0898.3652.1347.5576.1347.2512 0 .5055-.0815.7208-.2429l10.1747-7.5405c.3212-.2412.5087-.6139.5087-1.0099.0016-.4027-.1908-.7737-.5087-1.01z"/><path d="m24.6117.85144c-13.5337 0-24.50086 11.19096-24.50086 25.00086 0 13.8048 10.96716 24.9925 24.50086 24.9925 13.5304 0 24.4991-11.1893 24.4991-24.9925.0017-13.8099-10.9687-25.00086-24.4991-25.00086zm0 45.82206c-11.2705 0-20.40815-9.3191-20.40815-20.8212 0-11.4972 9.13765-20.82795 20.40815-20.82795 11.2688 0 20.4048 9.32915 20.4048 20.82795.0016 11.5021-9.136 20.8212-20.4048 20.8212z"/></g></svg>

<svg width="50" height="51" viewBox="0 0 50 51" fill="none" xmlns="http://www.w3.org/2000/svg">
<g clip-path="url(#clip0)">
<path d="M32.6926 24.8698L22.5179 17.3226C22.1445 17.0464 21.6488 17.0048 21.2395 17.2195C20.827 17.4325 20.5693 17.8651 20.5693 18.3326V33.4219C20.5693 33.8945 20.827 34.3254 21.2395 34.5384C21.414 34.6282 21.6047 34.6731 21.7971 34.6731C22.0483 34.6731 22.3026 34.5916 22.5179 34.4302L32.6926 26.8897C33.0138 26.6485 33.2013 26.2758 33.2013 25.8798C33.2029 25.4771 33.0105 25.1061 32.6926 24.8698Z" fill="white"/>
<path d="M24.6117 0.85144C11.078 0.85144 0.11084 12.0424 0.11084 25.8523C0.11084 39.6571 11.078 50.8448 24.6117 50.8448C38.1421 50.8448 49.1108 39.6555 49.1108 25.8523C49.1125 12.0424 38.1421 0.85144 24.6117 0.85144ZM24.6117 46.6735C13.3412 46.6735 4.20355 37.3544 4.20355 25.8523C4.20355 14.3551 13.3412 5.02435 24.6117 5.02435C35.8805 5.02435 45.0165 14.3535 45.0165 25.8523C45.0181 37.3544 35.8805 46.6735 24.6117 46.6735Z" fill="white"/>
</g>
<defs>
<clipPath id="clip0">
<rect width="49" height="50" fill="white" transform="translate(0.11084 0.84729)"/>
</clipPath>
</defs>
</svg>
